client/src/assets/icons/baseline-facebook.svg

<svg width="30" height="30" viewBox="0 0 30 30" fill="none" xmlns="http://www.w3.org/2000/svg">
<path d="M27.5 15C27.5 8.1 21.9 2.5 15 2.5C8.1 2.5 2.5 8.1 2.5 15C2.5 21.05 6.8 26.0875 12.5 27.25V18.75H10V15H12.5V11.875C12.5 9.4625 14.4625 7.5 16.875 7.5H20V11.25H17.5C16.8125 11.25 16.25 11.8125 16.25 12.5V15H20V18.75H16.25V27.4375C22.5625 26.8125 27.5 21.4875 27.5 15Z" fill="black"/>
</svg>

<svg xmlns="http://www.w3.org/2000/svg" width="30" height="30" fill="none" viewBox="0 0 30 30">
  <path fill="#fff" d="M27.5 15c0-6.9-5.6-12.5-12.5-12.5S2.5 8.1 2.5 15c0 6.05 4.3 11.087 10 12.25v-8.5H10V15h2.5v-3.125A4.38 4.38 0 0 1 16.875 7.5H20v3.75h-2.5c-.688 0-1.25.563-1.25 1.25V15H20v3.75h-3.75v8.688C22.563 26.813 27.5 21.488 27.5 15Z"/>
</svg>
